X: 1
T: Ray Milbourne
T: 4x32R 4C (Derek Haynes, Carnforth Colln)
P: Ray Milbourne
C: Iain MacPhail (1982)
S: Kate Carpenter <katecarpenter:hotmail.co.uk> 2011-10-8
N: Suggested tune for the dance Ray Milbourne (by Derek Haynes)
B: Carnforth Collection of SC Dances 1 #6
B: MacPhail Collection 1
R: Reel
M: 4/4
L: 1/8
K: G
 D>E \
| "G"GDEG DEGD | "G"EGDG B2AG | "Am"AEAc EAcA | "Bm7"cAce "D7"f2ef \
| "G"gBdg GBdD | "G"GBDG "Em"B2AG | "Am"AGAB "D7"edBA | "G"B2G2G2 :|
|: dB \
| "G"GBdG BdGB | "G"dGBd "E7"GedB | "Am"AceA ceAc | "Am"eAce "D7"AfdB \
| "G"GBdG BdGB | "G"dGBd "Em"GedB | "Am"A^GAB "D7"edBA | "G"B2G2G2 :|
|: G>E \
| "G"DEGD EGDE | "G"GDEG DEG2 | "Am"E^GAE GAEG | "Am"AE^GA "D7"EGA2 \
| "G"DEGD EGDE | "G"GDEG DEG2 | "Am"A^GAB "D7"edBA | "G"B2G2G2 :|
"D7"f2 \
| "G"gdef gBc^c | "G"dGA^A BDGB | "Am"A^GAB cBcd | "Am"edeg "D7"fgaf \
| "G"gdef gBc^c | "G"dGA^A BDGB | "Am"A^GAB "D7"edBA | "G"B2G2G2 ||
"D7"f2 \
| "G"gfed "Bm"d_dcB | "Em"B_BAG "G"GFED | "C"A^GAB "Am"cBcd | "A7"edeg "D7"fgaf \
| "G"gfed "Bm"d_dcB | "Em"B_BAG "G"GFED | "Am"A^GAB "D7"edBA | "G"B2G2G2 |]